src/assets/signals/historical_balance.svg

<svg width="33" height="33" viewBox="0 0 33 33" fill="none" xmlns="http://www.w3.org/2000/svg">
<path d="M2.25 14.5C2.25 7.73421 7.73421 2.25 14.5 2.25C20.9479 2.25 26.2336 7.23293 26.7142 13.5568C26.7455 13.9698 27.1058 14.2792 27.5188 14.2478C27.9318 14.2165 28.2412 13.8562 28.2098 13.4432C27.6704 6.34307 21.7381 0.75 14.5 0.75C6.90579 0.75 0.75 6.90579 0.75 14.5C0.75 22.0942 6.90579 28.25 14.5 28.25C14.8553 28.25 15.2082 28.2363 15.5567 28.2099C15.9697 28.1786 16.2791 27.8184 16.2479 27.4053C16.2166 26.9923 15.8564 26.6829 15.4433 26.7141C15.1318 26.7377 14.8167 26.75 14.5 26.75C7.73421 26.75 2.25 21.2658 2.25 14.5Z" fill="#181B2B"/>
<path d="M14.5 7.75C14.9142 7.75 15.25 8.08579 15.25 8.5V14.5C15.25 14.9142 14.9142 15.25 14.5 15.25H8.5C8.08579 15.25 7.75 14.9142 7.75 14.5C7.75 14.0858 8.08579 13.75 8.5 13.75H13.75V8.5C13.75 8.08579 14.0858 7.75 14.5 7.75Z" fill="#181B2B"/>
<path fill-rule="evenodd" clip-rule="evenodd" d="M18.75 20.5C18.75 19.2345 19.7564 18.2906 20.9219 17.7079C22.1323 17.1027 23.752 16.75 25.5 16.75C27.248 16.75 28.8677 17.1027 30.0781 17.7079C31.2436 18.2906 32.25 19.2345 32.25 20.5V28.5C32.25 29.7656 31.2437 30.7094 30.0782 31.2922C28.8678 31.8974 27.2482 32.25 25.5 32.25C23.7518 32.25 22.1322 31.8974 20.9218 31.2922C19.7563 30.7094 18.75 29.7656 18.75 28.5V20.5ZM20.25 20.5C20.25 20.1087 20.5867 19.5525 21.5928 19.0495C22.554 18.5689 23.9343 18.25 25.5 18.25C27.0657 18.25 28.446 18.5689 29.4072 19.0495C30.4133 19.5525 30.75 20.1087 30.75 20.5C30.75 20.8913 30.4133 21.4475 29.4072 21.9505C28.446 22.4311 27.0657 22.75 25.5 22.75C23.9343 22.75 22.554 22.4311 21.5928 21.9505C20.5867 21.4475 20.25 20.8913 20.25 20.5ZM30.75 22.9005V24.5C30.75 24.8914 30.4133 25.4476 29.4073 25.9506C28.4462 26.4311 27.0658 26.75 25.5 26.75C23.9342 26.75 22.5538 26.4311 21.5927 25.9506C20.5867 25.4476 20.25 24.8914 20.25 24.5V22.9005C20.4632 23.0452 20.6894 23.1759 20.9219 23.2921C22.1323 23.8973 23.752 24.25 25.5 24.25C27.248 24.25 28.8677 23.8973 30.0781 23.2921C30.3106 23.1759 30.5368 23.0452 30.75 22.9005ZM20.25 28.5V26.9006C20.4631 27.0453 20.6893 27.1759 20.9218 27.2922C22.1322 27.8974 23.7518 28.25 25.5 28.25C27.2482 28.25 28.8678 27.8974 30.0782 27.2922C30.3107 27.1759 30.5369 27.0453 30.75 26.9006V28.5C30.75 28.8914 30.4133 29.4476 29.4073 29.9506C28.4462 30.4311 27.0658 30.75 25.5 30.75C23.9342 30.75 22.5538 30.4311 21.5927 29.9506C20.5867 29.4476 20.25 28.8914 20.25 28.5Z" fill="#181B2B"/>
</svg>

<svg width="33" height="33" fill="none" xmlns="http://www.w3.org/2000/svg"><path d="M2.25 14.5c0-6.766 5.484-12.25 12.25-12.25 6.448 0 11.734 4.983 12.214 11.307a.75.75 0 1 0 1.496-.114C27.67 6.343 21.738.75 14.5.75 6.906.75.75 6.906.75 14.5S6.906 28.25 14.5 28.25c.355 0 .708-.014 1.057-.04a.75.75 0 0 0-.114-1.496c-.311.024-.626.036-.943.036-6.766 0-12.25-5.484-12.25-12.25z" fill="#181B2B"/><path d="M14.5 7.75a.75.75 0 0 1 .75.75v6a.75.75 0 0 1-.75.75h-6a.75.75 0 0 1 0-1.5h5.25V8.5a.75.75 0 0 1 .75-.75z" fill="#181B2B"/><path fill-rule="evenodd" clip-rule="evenodd" d="M18.75 20.5c0-1.265 1.006-2.21 2.172-2.792 1.21-.605 2.83-.958 4.578-.958 1.748 0 3.368.353 4.578.958 1.166.583 2.172 1.527 2.172 2.792v8c0 1.266-1.006 2.21-2.172 2.792-1.21.605-2.83.958-4.578.958-1.748 0-3.368-.353-4.578-.958-1.166-.583-2.172-1.526-2.172-2.792v-8zm1.5 0c0-.391.337-.948 1.343-1.45.961-.481 2.341-.8 3.907-.8 1.566 0 2.946.319 3.907.8 1.006.502 1.343 1.059 1.343 1.45s-.337.948-1.343 1.45c-.961.481-2.341.8-3.907.8-1.566 0-2.946-.319-3.907-.8-1.006-.502-1.343-1.059-1.343-1.45zm10.5 2.4v1.6c0 .391-.337.948-1.343 1.45-.96.481-2.341.8-3.907.8-1.566 0-2.946-.319-3.907-.8-1.006-.502-1.343-1.059-1.343-1.45v-1.6c.213.145.44.276.672.392 1.21.605 2.83.958 4.578.958 1.748 0 3.368-.353 4.578-.958.233-.116.459-.247.672-.392zm-10.5 5.6v-1.6c.213.145.44.276.672.392 1.21.605 2.83.958 4.578.958 1.748 0 3.368-.353 4.578-.958.233-.116.459-.247.672-.391V28.5c0 .391-.337.948-1.343 1.45-.96.481-2.341.8-3.907.8-1.566 0-2.946-.319-3.907-.8-1.006-.502-1.343-1.059-1.343-1.45z" fill="#181B2B"/></svg>
